X:538
T: Die schne Buerin (238b), S. 512f
N: T0426
O: Luxemburg
S: Singendes Volk, Esch-Alzette, 1937 posth.]
N: In der 5. Zeile ergibt sich ein vom
N: Herausgeber nicht angekndigter 5/4!;
N: Hamm, hhh Welter, 26.7.1932;
N: (238c)- Esch-Alzette, Liederheft der Schlerin fff Cravatte
R: Berufslied, Liebeslied]
M: none
L: 1/16
K: D
B,4 | D2FAA6A2A2d2 | d2F2F4z4
F4 | G2F2E2B4A2G2E2 | D4z8
B,4 | D2FAA6A2A2d2 | d2F2F4z4
F4 | G2F2E2B4A2G2E2 | D4z8
A4 | B2A2G4E6d2 | f6e2d2F2A6
A2 | B2A2A4G6B2 | A2G2F4z4
D4 | D2FAA6A2B2c2 | d8z4
e2d2 | c2B2E2c4B2A2G2 | F8z4

